images/3235357.svg

<?xml version="1.0" encoding="UTF-8"?>
<svg xmlns="http://www.w3.org/2000/svg" xmlns:xlink="http://www.w3.org/1999/xlink" width="300pt" height="300pt" viewBox="0 0 300 300" version="1.1">
<defs>
<g>
<symbol overflow="visible" id="glyph0-0">
<path style="stroke:none;" d="M 0.75 2.65625 L 0.75 -10.578125 L 8.25 -10.578125 L 8.25 2.65625 Z M 1.59375 1.8125 L 7.40625 1.8125 L 7.40625 -9.734375 L 1.59375 -9.734375 Z M 1.59375 1.8125 "/>
</symbol>
<symbol overflow="visible" id="glyph0-1">
<path style="stroke:none;" d="M 1.46875 -10.9375 L 3.46875 -10.9375 L 8.3125 -1.78125 L 8.3125 -10.9375 L 9.75 -10.9375 L 9.75 0 L 7.75 0 L 2.90625 -9.140625 L 2.90625 0 L 1.46875 0 Z M 1.46875 -10.9375 "/>
</symbol>
<symbol overflow="visible" id="glyph0-2">
<path style="stroke:none;" d="M 1.46875 -10.9375 L 2.953125 -10.9375 L 2.953125 -6.453125 L 8.328125 -6.453125 L 8.328125 -10.9375 L 9.8125 -10.9375 L 9.8125 0 L 8.328125 0 L 8.328125 -5.203125 L 2.953125 -5.203125 L 2.953125 0 L 1.46875 0 Z M 1.46875 -10.9375 "/>
</symbol>
</g>
</defs>
<g id="surface42209">
<rect x="0" y="0" width="300" height="300" style="fill:rgb(100%,100%,100%);fill-opacity:1;stroke:none;"/>
<path style="fill:none;stroke-width:1.2;stroke-linecap:butt;stroke-linejoin:miter;stroke:rgb(0%,0%,0%);stroke-opacity:1;stroke-miterlimit:10;" d="M 39.242188 138.878906 L 54.746094 107.414062 "/>
<path style="fill:none;stroke-width:1.2;stroke-linecap:butt;stroke-linejoin:miter;stroke:rgb(0%,0%,0%);stroke-opacity:1;stroke-miterlimit:10;" d="M 54.746094 107.414062 L 35.25 78.257812 "/>
<path style="fill:none;stroke-width:1.2;stroke-linecap:butt;stroke-linejoin:miter;stroke:rgb(0%,0%,0%);stroke-opacity:1;stroke-miterlimit:10;" d="M 59.65625 99.910156 L 44.058594 76.585938 "/>
<path style="fill:none;stroke-width:1.2;stroke-linecap:butt;stroke-linejoin:miter;stroke:rgb(0%,0%,0%);stroke-opacity:1;stroke-miterlimit:10;" d="M 89.746094 105.109375 L 54.746094 107.414062 "/>
<path style="fill:none;stroke-width:1.2;stroke-linecap:butt;stroke-linejoin:miter;stroke:rgb(0%,0%,0%);stroke-opacity:1;stroke-miterlimit:10;" d="M 35.25 78.257812 L 50.753906 46.792969 "/>
<path style="fill:none;stroke-width:1.2;stroke-linecap:butt;stroke-linejoin:miter;stroke:rgb(0%,0%,0%);stroke-opacity:1;stroke-miterlimit:10;" d="M 50.753906 46.792969 L 85.753906 44.488281 "/>
<path style="fill:none;stroke-width:1.2;stroke-linecap:butt;stroke-linejoin:miter;stroke:rgb(0%,0%,0%);stroke-opacity:1;stroke-miterlimit:10;" d="M 54.796875 54.796875 L 82.796875 52.953125 "/>
<path style="fill:none;stroke-width:1.2;stroke-linecap:butt;stroke-linejoin:miter;stroke:rgb(0%,0%,0%);stroke-opacity:1;stroke-miterlimit:10;" d="M 85.753906 44.488281 L 105.25 73.644531 "/>
<path style="fill:none;stroke-width:1.2;stroke-linecap:butt;stroke-linejoin:miter;stroke:rgb(0%,0%,0%);stroke-opacity:1;stroke-miterlimit:10;" d="M 105.25 73.644531 L 89.746094 105.109375 "/>
<path style="fill:none;stroke-width:1.2;stroke-linecap:butt;stroke-linejoin:miter;stroke:rgb(0%,0%,0%);stroke-opacity:1;stroke-miterlimit:10;" d="M 96.296875 73.144531 L 83.894531 98.316406 "/>
<path style="fill:none;stroke-width:1.2;stroke-linecap:butt;stroke-linejoin:miter;stroke:rgb(0%,0%,0%);stroke-opacity:1;stroke-miterlimit:10;" d="M 89.746094 105.109375 L 109.246094 134.269531 "/>
<path style="fill:none;stroke-width:1.2;stroke-linecap:butt;stroke-linejoin:miter;stroke:rgb(0%,0%,0%);stroke-opacity:1;stroke-miterlimit:10;" d="M 109.246094 134.269531 L 101.492188 150 "/>
<path style="fill:none;stroke-width:1.2;stroke-linecap:butt;stroke-linejoin:miter;stroke:rgb(0%,0%,100%);stroke-opacity:1;stroke-miterlimit:10;" d="M 101.492188 150 L 93.742188 165.730469 "/>
<path style="fill:none;stroke-width:1.2;stroke-linecap:butt;stroke-linejoin:miter;stroke:rgb(0%,0%,0%);stroke-opacity:1;stroke-miterlimit:10;" d="M 115.097656 141.0625 L 108.894531 153.648438 "/>
<path style="fill:none;stroke-width:1.2;stroke-linecap:butt;stroke-linejoin:miter;stroke:rgb(0%,0%,100%);stroke-opacity:1;stroke-miterlimit:10;" d="M 108.894531 153.648438 L 102.695312 166.234375 "/>
<path style="fill:none;stroke-width:1.2;stroke-linecap:butt;stroke-linejoin:miter;stroke:rgb(0%,0%,100%);stroke-opacity:1;stroke-miterlimit:10;" d="M 144.246094 131.960938 L 126.746094 133.113281 "/>
<path style="fill:none;stroke-width:1.2;stroke-linecap:butt;stroke-linejoin:miter;stroke:rgb(0%,0%,0%);stroke-opacity:1;stroke-miterlimit:10;" d="M 126.746094 133.113281 L 109.246094 134.269531 "/>
<path style="fill:none;stroke-width:1.2;stroke-linecap:butt;stroke-linejoin:miter;stroke:rgb(0%,0%,100%);stroke-opacity:1;stroke-miterlimit:10;" d="M 93.742188 165.730469 L 103.488281 180.3125 "/>
<path style="fill:none;stroke-width:1.2;stroke-linecap:butt;stroke-linejoin:miter;stroke:rgb(0%,0%,0%);stroke-opacity:1;stroke-miterlimit:10;" d="M 103.488281 180.3125 L 113.238281 194.890625 "/>
<path style=" stroke:none;fill-rule:nonzero;fill:rgb(100%,100%,100%);fill-opacity:1;" d="M 88.742188 156.730469 L 99.742188 156.730469 L 99.742188 174.730469 L 88.742188 174.730469 Z M 88.742188 156.730469 "/>
<g style="fill:rgb(0%,0%,100%);fill-opacity:1;">
  <use xlink:href="#glyph0-1" x="88.742188" y="170.344727"/>
</g>
<path style="fill:none;stroke-width:1.2;stroke-linecap:butt;stroke-linejoin:miter;stroke:rgb(0%,0%,0%);stroke-opacity:1;stroke-miterlimit:10;" d="M 113.238281 194.890625 L 97.734375 226.355469 "/>
<path style="fill:none;stroke-width:1.2;stroke-linecap:butt;stroke-linejoin:miter;stroke:rgb(0%,0%,0%);stroke-opacity:1;stroke-miterlimit:10;" d="M 119.089844 201.683594 L 106.6875 226.855469 "/>
<path style="fill:none;stroke-width:1.2;stroke-linecap:butt;stroke-linejoin:miter;stroke:rgb(0%,0%,0%);stroke-opacity:1;stroke-miterlimit:10;" d="M 148.238281 192.585938 L 113.238281 194.890625 "/>
<path style="fill:none;stroke-width:1.2;stroke-linecap:butt;stroke-linejoin:miter;stroke:rgb(0%,0%,0%);stroke-opacity:1;stroke-miterlimit:10;" d="M 97.734375 226.355469 L 117.230469 255.511719 "/>
<path style="fill:none;stroke-width:1.2;stroke-linecap:butt;stroke-linejoin:miter;stroke:rgb(0%,0%,0%);stroke-opacity:1;stroke-miterlimit:10;" d="M 117.230469 255.511719 L 152.234375 253.207031 "/>
<path style="fill:none;stroke-width:1.2;stroke-linecap:butt;stroke-linejoin:miter;stroke:rgb(0%,0%,0%);stroke-opacity:1;stroke-miterlimit:10;" d="M 120.191406 247.046875 L 148.191406 245.203125 "/>
<path style="fill:none;stroke-width:1.2;stroke-linecap:butt;stroke-linejoin:miter;stroke:rgb(0%,0%,0%);stroke-opacity:1;stroke-miterlimit:10;" d="M 152.234375 253.207031 L 167.734375 221.742188 "/>
<path style="fill:none;stroke-width:1.2;stroke-linecap:butt;stroke-linejoin:miter;stroke:rgb(0%,0%,0%);stroke-opacity:1;stroke-miterlimit:10;" d="M 167.734375 221.742188 L 148.238281 192.585938 "/>
<path style="fill:none;stroke-width:1.2;stroke-linecap:butt;stroke-linejoin:miter;stroke:rgb(0%,0%,0%);stroke-opacity:1;stroke-miterlimit:10;" d="M 158.925781 223.414062 L 143.328125 200.089844 "/>
<path style="fill:none;stroke-width:1.2;stroke-linecap:butt;stroke-linejoin:miter;stroke:rgb(0%,0%,0%);stroke-opacity:1;stroke-miterlimit:10;" d="M 148.238281 192.585938 L 163.742188 161.121094 "/>
<path style="fill:none;stroke-width:1.2;stroke-linecap:butt;stroke-linejoin:miter;stroke:rgb(0%,0%,0%);stroke-opacity:1;stroke-miterlimit:10;" d="M 163.742188 161.121094 L 153.992188 146.542969 "/>
<path style="fill:none;stroke-width:1.2;stroke-linecap:butt;stroke-linejoin:miter;stroke:rgb(0%,0%,100%);stroke-opacity:1;stroke-miterlimit:10;" d="M 153.992188 146.542969 L 144.246094 131.960938 "/>
<path style="fill:none;stroke-width:1.2;stroke-linecap:butt;stroke-linejoin:miter;stroke:rgb(0%,0%,0%);stroke-opacity:1;stroke-miterlimit:10;" d="M 154.933594 162.792969 L 147.132812 151.128906 "/>
<path style="fill:none;stroke-width:1.2;stroke-linecap:butt;stroke-linejoin:miter;stroke:rgb(0%,0%,100%);stroke-opacity:1;stroke-miterlimit:10;" d="M 147.132812 151.128906 L 139.335938 139.464844 "/>
<path style="fill:none;stroke-width:1.2;stroke-linecap:butt;stroke-linejoin:miter;stroke:rgb(0%,0%,0%);stroke-opacity:1;stroke-miterlimit:10;" d="M 163.742188 161.121094 L 181.242188 159.96875 "/>
<path style="fill:none;stroke-width:1.2;stroke-linecap:butt;stroke-linejoin:miter;stroke:rgb(0%,0%,100%);stroke-opacity:1;stroke-miterlimit:10;" d="M 181.242188 159.96875 L 198.742188 158.816406 "/>
<path style=" stroke:none;fill-rule:nonzero;fill:rgb(100%,100%,100%);fill-opacity:1;" d="M 139.246094 122.960938 L 150.246094 122.960938 L 150.246094 140.960938 L 139.246094 140.960938 Z M 139.246094 122.960938 "/>
<g style="fill:rgb(0%,0%,100%);fill-opacity:1;">
  <use xlink:href="#glyph0-1" x="139.246094" y="136.575195"/>
</g>
<path style="fill:none;stroke-width:1.2;stroke-linecap:butt;stroke-linejoin:miter;stroke:rgb(0%,0%,100%);stroke-opacity:1;stroke-miterlimit:10;" d="M 198.742188 158.816406 L 206.496094 143.082031 "/>
<path style="fill:none;stroke-width:1.2;stroke-linecap:butt;stroke-linejoin:miter;stroke:rgb(0%,0%,0%);stroke-opacity:1;stroke-miterlimit:10;" d="M 206.496094 143.082031 L 214.246094 127.351562 "/>
<path style=" stroke:none;fill-rule:nonzero;fill:rgb(100%,100%,100%);fill-opacity:1;" d="M 187.742188 149.816406 L 210.742188 149.816406 L 210.742188 167.816406 L 187.742188 167.816406 Z M 187.742188 149.816406 "/>
<g style="fill:rgb(0%,0%,100%);fill-opacity:1;">
  <use xlink:href="#glyph0-1" x="187.742188" y="163.430664"/>
  <use xlink:href="#glyph0-2" x="198.717773" y="163.430664"/>
</g>
<path style="fill:none;stroke-width:1.2;stroke-linecap:butt;stroke-linejoin:miter;stroke:rgb(0%,0%,0%);stroke-opacity:1;stroke-miterlimit:10;" d="M 214.246094 127.351562 L 249.246094 125.042969 "/>
<path style="fill:none;stroke-width:1.2;stroke-linecap:butt;stroke-linejoin:miter;stroke:rgb(0%,0%,0%);stroke-opacity:1;stroke-miterlimit:10;" d="M 217.203125 118.882812 L 245.203125 117.039062 "/>
<path style="fill:none;stroke-width:1.2;stroke-linecap:butt;stroke-linejoin:miter;stroke:rgb(0%,0%,0%);stroke-opacity:1;stroke-miterlimit:10;" d="M 194.75 98.191406 L 214.246094 127.351562 "/>
<path style="fill:none;stroke-width:1.2;stroke-linecap:butt;stroke-linejoin:miter;stroke:rgb(0%,0%,0%);stroke-opacity:1;stroke-miterlimit:10;" d="M 249.246094 125.042969 L 264.75 93.582031 "/>
<path style="fill:none;stroke-width:1.2;stroke-linecap:butt;stroke-linejoin:miter;stroke:rgb(0%,0%,0%);stroke-opacity:1;stroke-miterlimit:10;" d="M 264.75 93.582031 L 255 79 "/>
<path style="fill:none;stroke-width:1.2;stroke-linecap:butt;stroke-linejoin:miter;stroke:rgb(0%,0%,100%);stroke-opacity:1;stroke-miterlimit:10;" d="M 255 79 L 245.253906 64.421875 "/>
<path style="fill:none;stroke-width:1.2;stroke-linecap:butt;stroke-linejoin:miter;stroke:rgb(0%,0%,0%);stroke-opacity:1;stroke-miterlimit:10;" d="M 255.941406 95.253906 L 248.140625 83.589844 "/>
<path style="fill:none;stroke-width:1.2;stroke-linecap:butt;stroke-linejoin:miter;stroke:rgb(0%,0%,100%);stroke-opacity:1;stroke-miterlimit:10;" d="M 248.140625 83.589844 L 240.34375 71.925781 "/>
<path style="fill:none;stroke-width:1.2;stroke-linecap:butt;stroke-linejoin:miter;stroke:rgb(0%,0%,100%);stroke-opacity:1;stroke-miterlimit:10;" d="M 245.253906 64.421875 L 227.753906 65.574219 "/>
<path style="fill:none;stroke-width:1.2;stroke-linecap:butt;stroke-linejoin:miter;stroke:rgb(0%,0%,0%);stroke-opacity:1;stroke-miterlimit:10;" d="M 227.753906 65.574219 L 210.253906 66.726562 "/>
<path style=" stroke:none;fill-rule:nonzero;fill:rgb(100%,100%,100%);fill-opacity:1;" d="M 240.253906 55.421875 L 251.253906 55.421875 L 251.253906 73.421875 L 240.253906 73.421875 Z M 240.253906 55.421875 "/>
<g style="fill:rgb(0%,0%,100%);fill-opacity:1;">
  <use xlink:href="#glyph0-1" x="240.253906" y="69.036133"/>
</g>
<path style="fill:none;stroke-width:1.2;stroke-linecap:butt;stroke-linejoin:miter;stroke:rgb(0%,0%,0%);stroke-opacity:1;stroke-miterlimit:10;" d="M 210.253906 66.726562 L 194.75 98.191406 "/>
<path style="fill:none;stroke-width:1.2;stroke-linecap:butt;stroke-linejoin:miter;stroke:rgb(0%,0%,0%);stroke-opacity:1;stroke-miterlimit:10;" d="M 216.105469 73.523438 L 203.703125 98.695312 "/>
</g>
</svg>

<svg xmlns="http://www.w3.org/2000/svg" xmlns:xlink="http://www.w3.org/1999/xlink" width="300pt" height="300pt" viewBox="0 0 300 300"><defs><symbol overflow="visible"><path d="M.75 2.656v-13.234h7.5V2.656zm.844-.844h5.812V-9.733H1.594zm0 0"/></symbol><symbol overflow="visible" id="a"><path d="M1.47-10.938h2L8.31-1.78v-9.158H9.75V0h-2L2.906-9.14V0H1.47zm0 0"/></symbol><symbol overflow="visible" id="b"><path d="M1.47-10.938h1.483v4.485h5.375v-4.484h1.485V0H8.328v-5.203H2.953V0H1.47zm0 0"/></symbol></defs><g><path fill="#fff" d="M0 0h300v300H0z"/><path d="M39.242 138.88l15.504-31.466M54.746 107.414L35.25 78.258M59.656 99.91L44.06 76.586M89.746 105.11l-35 2.304M35.25 78.258l15.504-31.465M50.754 46.793l35-2.305M54.797 54.797l28-1.844M85.754 44.488l19.496 29.157M105.25 73.645L89.746 105.11M96.297 73.145l-12.402 25.17M89.746 105.11l19.5 29.16M109.246 134.27L101.492 150" stroke-width="1.2" stroke="#000" stroke-miterlimit="10" fill="none"/><path d="M101.492 150l-7.75 15.73" stroke-width="1.2" stroke="#00f" stroke-miterlimit="10" fill="none"/><path d="M115.098 141.063l-6.203 12.585" stroke-width="1.2" stroke="#000" stroke-miterlimit="10" fill="none"/><path d="M108.895 153.648l-6.2 12.586M144.246 131.96l-17.5 1.153" stroke-width="1.2" stroke="#00f" stroke-miterlimit="10" fill="none"/><path d="M126.746 133.113l-17.5 1.157" stroke-width="1.2" stroke="#000" stroke-miterlimit="10" fill="none"/><path d="M93.742 165.73l9.746 14.583" stroke-width="1.2" stroke="#00f" stroke-miterlimit="10" fill="none"/><path d="M103.488 180.313l9.75 14.578" stroke-width="1.2" stroke="#000" stroke-miterlimit="10" fill="none"/><path d="M88.742 156.73h11v18h-11zm0 0" fill="#fff"/><use xlink:href="#a" x="88.742" y="170.345" fill="#00f"/><path d="M113.238 194.89l-15.504 31.465M119.09 201.684l-12.403 25.17M148.238 192.586l-35 2.305M97.734 226.355l19.496 29.157M117.23 255.512l35.004-2.305M120.19 247.047l28-1.844M152.234 253.207l15.5-31.465M167.734 221.742l-19.496-29.156M158.926 223.414l-15.598-23.324M148.238 192.586l15.504-31.465M163.742 161.12l-9.75-14.577" stroke-width="1.2" stroke="#000" stroke-miterlimit="10" fill="none"/><path d="M153.992 146.543l-9.746-14.582" stroke-width="1.2" stroke="#00f" stroke-miterlimit="10" fill="none"/><path d="M154.934 162.793l-7.8-11.664" stroke-width="1.2" stroke="#000" stroke-miterlimit="10" fill="none"/><path d="M147.133 151.13l-7.797-11.665" stroke-width="1.2" stroke="#00f" stroke-miterlimit="10" fill="none"/><path d="M163.742 161.12l17.5-1.15" stroke-width="1.2" stroke="#000" stroke-miterlimit="10" fill="none"/><path d="M181.242 159.97l17.5-1.154" stroke-width="1.2" stroke="#00f" stroke-miterlimit="10" fill="none"/><path d="M139.246 122.96h11v18h-11zm0 0" fill="#fff"/><use xlink:href="#a" x="139.246" y="136.575" fill="#00f"/><path d="M198.742 158.816l7.754-15.734" stroke-width="1.2" stroke="#00f" stroke-miterlimit="10" fill="none"/><path d="M206.496 143.082l7.75-15.73" stroke-width="1.2" stroke="#000" stroke-miterlimit="10" fill="none"/><path d="M187.742 149.816h23v18h-23zm0 0" fill="#fff"/><g fill="#00f"><use xlink:href="#a" x="187.742" y="163.431"/><use xlink:href="#b" x="198.718" y="163.431"/></g><path d="M214.246 127.352l35-2.31M217.203 118.883l28-1.844M194.75 98.19l19.496 29.162M249.246 125.043l15.504-31.46M264.75 93.582L255 79" stroke-width="1.2" stroke="#000" stroke-miterlimit="10" fill="none"/><path d="M255 79l-9.746-14.578" stroke-width="1.2" stroke="#00f" stroke-miterlimit="10" fill="none"/><path d="M255.94 95.254l-7.8-11.664" stroke-width="1.2" stroke="#000" stroke-miterlimit="10" fill="none"/><path d="M248.14 83.59l-7.796-11.664M245.254 64.422l-17.5 1.152" stroke-width="1.2" stroke="#00f" stroke-miterlimit="10" fill="none"/><path d="M227.754 65.574l-17.5 1.153" stroke-width="1.2" stroke="#000" stroke-miterlimit="10" fill="none"/><path d="M240.254 55.422h11v18h-11zm0 0" fill="#fff"/><use xlink:href="#a" x="240.254" y="69.036" fill="#00f"/><path d="M210.254 66.727L194.75 98.19M216.105 73.523l-12.402 25.172" stroke-width="1.2" stroke="#000" stroke-miterlimit="10" fill="none"/></g></svg>
